X:18
T:Brian O'Lynn
Z: id:dc-jig-14
M:6/8
L:1/8
K:A Dorian
B|cAd cAG|EDE GAB|cAd cAG|EAA A2B|!
cAd cAG|EDE GAB|cde fed|cAA A2:|!
f|g3 ged|cAB cde|eaa age|edc def|!
gea ged|cAB cde|fed cAG|EAA A2:|!

